X:3
T:The Frost Is All Over / The Mist Of Clonmel
M:6/8
L:1/8
R:jig
K:Dmaj
d2f edc|dAF GFE|DFA DFA|Bcd efg|
~d2f edc|dAF GFE|DFA DFA|1 Bdc d2A:|2 ~B2d d2e||
~f3 afd|~g3 bag|~f3 afd|gfg efg|
~f3 afd|~g3 bag|fga efg|edc d2g|
~f3 afd|~g3 bag|~f3 afd|~g3 e2g|
faf gfe|dfd AFG|Bcd efg|faf gfe||
